X: 11333
T: Eamon Flynn's
R: reel
M: 4/4
K: Aminor
|:E,A,CE (3A^GA ED|^CED=C B,G,^G,B,|A,^G,A,B, CB,CE|EAAB (3cBA BG|
AdcB (3A^GA ED|^CED=C B,G,^G,B,|A,^G,A,B, CEAG|EDCB, A,3E:|
|:A^GAB (3cBc B=G|AGEC E,A,CE|DG (3G^FG BGE^F|GEDB, A,B,DE|
A^GAB ceBG|AGEC E,A,CE|DG (3G^FG BG (3AG^F|GEDB, A,4:|

